X: 3025
T: Battle Swing
R: jig
M: 6/8
K: Bminor
BdB fBf|edc edc|BdB fgf|afe cBA|
BdB fBf|edc edc|d3- d2e|cBA B3|
BdB fBf|edc edc|BdB fgb|agf edc|
BdB fBf|edc edc|d3- d2e|cBA B3||
|:Bdf b3|afe e3|Bdf b3|afe e3|
Bdf b3|aee afe|gfe e2f|cBA B3:|

